X: 1
T: the Lakes of Sligo
T: the Lass o' Gowrie
O: Trad
R: march
Z: John Chambers <jc:trillian.mit.edu>
M: 2/4
L: 1/8
K: C
|: "C"EG GA/B/ | "Am"c>d cB | "F"A>G Ac | "G7"d>c de \
 | "C"EG GA/B/ | "Am"c>d ed | "F"cA "C"Ge | "G7"d2 "C"c2 :|
|: "C"eg c>d | "C"eg "(A7)"gf/e/ | "Dm"fa d>e | "Dm"fa "G7"ag/f/ \
 | "C"eg/e/ "G7"de/d/ | "Am"cd ee/d/ | "F"cA "C"Ge | "G7"d2 "C"c2 :|

